X: 562
T: Polska efter Knis Karl Aronsson
S: efter Knis Karl Aronsson
O: Dalarna
R: Polska
Z: Håkan Lidén, 2008-09-28
M: 9/8
L: 1/4
K: D
A f/-f3/2 e d/ | c A/-A d/ c/B/c/ | d A G E G/ | F/E/ D C D3/2- |
D f/-f3/2 e d/ | c A/-A d/ c/B/c/ | d A G E G/ | F3/2 D3 :|
|: A c/-c d/ e/f/e/ | d3/2 e/f/g/ b/g/b/ | a g e/g/ f/d/f/ | e/ c A3 |
A c/-c d/ e/f/e/ | d3/2 e/f/g/ b/g/b/ | a g e/g/ f/d/f/ | e/ c d3 :|]
(:musicend:)

(:music:)
